X:1
T:E YIN AKORIN NI IJO MIMO
T:E YIN AKORIN NI IJO MIMO
T:CCC HYMN 352
T:CELESTIAL CHURCH OF CHRIST
T:Copyright © CCC Central Choir
C:CELESTIAL CHURCH OF CHRIST
Z:Copyright © CCC Central Choir
%%score [ ( 1 2 ) ( 3 4 ) ]
L:1/8
Q:3/8=36
M:9/8
K:Ab
V:1 treble nm="Soprano/Alto"
V:2 treble 
V:3 bass nm="Tenor/Bass"
V:4 bass 
V:1
 EAB | c3 c3 cBA | B3 B3 EGB | d3 d3 (dc)B | c3- c3 | EAB | c3 c3 cBA | B3 B3 EGA | B3 B3 BAG | %9
w: 1.   E yin A-|ko- rin ni i- jo|mi- mo; E ko- rin|O- lu- wa _ s'o-|ke, *|Pe- lu a-|won An- gel' lo- ke|o- run, E ju- mo|ko o- rin yin di-|
w: 2.   E yin A-|yan- fe ni i- jo|mi- mo; E gbe O-|lu- wa ga l'o- ke͜ o-|run, *|Pe- lu a-|won An- gel' lo- ke|o- run En- yin Ba-|ba na l'o- ri 'te|
 A3- A3!D.C.! | A6- A3 | A6- A3 |] %12
w: dun. *|||
w: Re. *|A- *|min. *|
V:2
 CCD | E3 E3 EDC | E3 E3 EEE | E3 E3 E-EE | E3- E3 | CCD | E3 E3 EDC | E3 E3 EEE | E3 E3 EEE | %9
 E3- E3 | F6- F3 | E6- E3 |] %12
V:3
 A,A,A, | A,3 A,3 A,A,A, | G,3 G,3 G,G,G, | B,3 B,3 (B,A,)G, | A,3- A,3 | A,A,A, | A,3 A,3 A,A,A, | %7
 G,3 G,3 G,B,C | D3 D3 DCB, | C3- C3 | D6- D3 | C6- C3 |] %12
V:4
 A,A,A, | A,3 A,3 A,A,A, | E,3 E,3 E,E,E, | E,3 E,3 E,-E,E, | A,,3- A,,3 | A,,A,,A,, | %6
 A,,3 A,,3 A,,A,,A,, | E,3 E,3 E,E,E, | E,3 E,3 E,E,E, | A,,3- A,,3 | D,6- D,3 | A,,6- A,,3 |] %12

